X:231
T: Soldatenlied (3-34), S. 109
N: P1006
O: Lothringen
S: PINCK, Louis: Verklingende Weisen, Bd3, Metz 1933]
R: Soldatenlied]
M: 3/4
L: 1/16
K: Eb
e4 | B4G4B2B2 | A2G2F4
B3A | G4E4G4 | F8
B,4 | E4E4F2F2 | G2A2B4
c3c | B4A4F2G2 | E8

@@@ Tune index: 7781
